components/icon/svg/24/av_pause.svg

<?xml version="1.0" encoding="UTF-8"?>
<svg width="24px" height="24px" viewBox="0 0 24 24" version="1.1" xmlns="http://www.w3.org/2000/svg" xmlns:xlink="http://www.w3.org/1999/xlink">
    <!-- Generator: Sketch 64 (93537) - https://sketch.com -->
    <title>ic-db_av_pause_24</title>
    <desc>Created with Sketch.</desc>
    <g id="Symbols" stroke="none" stroke-width="1" fill="none" fill-rule="evenodd">
        <g id="24dp-Icon/AV/Pause" fill="#282D37">
            <path d="M9,17.0117305 L9,6.96470824 C9.023461,6.42360136 9.47052336,6 10.0117305,6 C10.5529376,6 11,6.42360136 11,6.96470824 L11,17.0117305 C11,17.5529376 10.5529376,18 10.0117305,18 C9.44706236,18 9,17.5529376 9,17.0117305 Z M13,17.0117305 L13,6.96470824 C13,6.42360136 13.4470624,6 13.9882695,6 C14.5294766,6 14.976539,6.42360136 15,6.96470824 L15,17.0117305 C15,17.5529376 14.5529376,18 13.9882695,18 C13.4470624,18 13,17.5529376 13,17.0117305 Z" id="🎨-Color"></path>
        </g>
    </g>
</svg>

<svg width="24" height="24" xmlns="http://www.w3.org/2000/svg"><path d="M9 17.012V6.965A1.01 1.01 0 0110.012 6c.54 0 .988.424.988.965v10.047a.994.994 0 01-.988.988A1 1 0 019 17.012zm4 0V6.965c0-.541.447-.965.988-.965.541 0 .989.424 1.012.965v10.047a1 1 0 01-1.012.988.994.994 0 01-.988-.988z" fill="#282D37" fill-rule="evenodd"/></svg>
